!!!OTL:
!!!ONR: No. 1
!! From Madeleine Beland,
!! "Chansons de Voyageurs, Coureurs de Bois et Forestiers"
!! Quebec: Les Presses de l'universite/ Laval, 1982
!! ISBN 2-7637-6942-X
**kern
*clefG2
*k[b-]
*M6/8
=1-
qd
4.g
4g
16bn
16dd
=
[4.dd
4dd]
8dd
=
8.bn
16g
8g
4g
8b
=
qbn
4.dd
4r
8r
=
8.g
8.a
16a
8.b-
qb-
8dd
=
(8dd
[4cc
4cc])
8b-
=
4a
8g
4f
8g
=
16g
8.a
8g
4g;
8r
=
qg
4b-
8b-
(16b-
8.dd)
8b-
=
(8b-
[4a
8a])
8r
16a
16dd
=
4dd
8dd
4g
8a
=
8.b-
8.a
4r
8r
=
8.g
8.a
4b-
(16b-
16dd)
=
(8dd
[4cc
4cc])
8b-
=
4a
8g
4f
8g
=
(8a
4g)
4r
8r
==
*-
